svgs/sharp-regular/train.svg

<svg xmlns="http://www.w3.org/2000/svg" viewBox="0 0 448 512"><!--! Font Awesome Pro 6.6.0 by @fontawesome - https://fontawesome.com License - https://fontawesome.com/license (Commercial License) Copyright 2024 Fonticons, Inc. --><path d="M48 48l0 144 352 0 0-144L48 48zm0 192l0 160 352 0 0-160L48 240zM0 0L48 0 400 0l48 0 0 48 0 352 0 48-48 0-14.1 0 47 47 17 17-67.9 0-64-64-188.1 0-64 64-67.9 0 17-17 47-47L48 448 0 448l0-48L0 48 0 0zM184 320a40 40 0 1 1 80 0 40 40 0 1 1 -80 0z"/></svg>

<svg xmlns="http://www.w3.org/2000/svg" viewBox="0 0 448 512"><!--! Font Awesome Pro 6.4.0 by @fontawesome - https://fontawesome.com License - https://fontawesome.com/license (Commercial License) Copyright 2023 Fonticons, Inc. --><path d="M48 48V192H400V48H48zm0 192V400H400V240H48zM0 0H48 400h48V48 400v48H400 385.9l47 47 17 17H382.1l-64-64H129.9l-64 64H-1.9l17-17 47-47H48 0V400 48 0zM184 320a40 40 0 1 1 80 0 40 40 0 1 1 -80 0z"/></svg>
